X:146
T:Maiden under willow - Kerswell
%%VWML:SBG-1-2-516-0
F:http://www.vwml.org/record/SBG/1/2/516
Z:Original Sibelius transcriptions by M. & S. Graebe
N:Tune not on url
L:1/4
M:6/8
I:linebreak $
K:Bb
V:1 treble nm="P1"
V:2 treble 
V:1
 F/ | F G A | d c c | G B A | F3 F | F G A | A B c | f e- d | c2 c |$ A B c | f c3/2 c/ | ^c c c | %12
 d2 [G=c] | F G A | B d3/2 c/ | c A G | F3 | %17
V:2
 x/ | x3 | x3 | x3 | x4 | x3 | x3 | x3 | x3 |$ x3 | x3 | G B A | F2 x | x3 | x3 | x3 | x3 | %17

